resources/icons/redis.svg

<?xml version="1.0" encoding="UTF-8" standalone="no"?>
<svg
   xmlns:dc="http://purl.org/dc/elements/1.1/"
   xmlns:cc="http://creativecommons.org/ns#"
   xmlns:rdf="http://www.w3.org/1999/02/22-rdf-syntax-ns#"
   xmlns:svg="http://www.w3.org/2000/svg"
   xmlns="http://www.w3.org/2000/svg"
   xmlns:sodipodi="http://sodipodi.sourceforge.net/DTD/sodipodi-0.dtd"
   xmlns:inkscape="http://www.inkscape.org/namespaces/inkscape"
   inkscape:version="1.0 (4035a4fb49, 2020-05-01)"
   sodipodi:docname="redis.svg"
   id="svg20"
   version="1.1"
   preserveAspectRatio="xMinYMin meet"
   width="16"
   viewBox="0 0 16 16"
   height="16">
  <metadata
     id="metadata26">
    <rdf:RDF>
      <cc:Work
         rdf:about="">
        <dc:format>image/svg+xml</dc:format>
        <dc:type
           rdf:resource="http://purl.org/dc/dcmitype/StillImage" />
      </cc:Work>
    </rdf:RDF>
  </metadata>
  <defs
     id="defs24" />
  <sodipodi:namedview
     inkscape:current-layer="svg20"
     inkscape:cy="9.8493585"
     inkscape:cx="30.468642"
     inkscape:zoom="24.710608"
     showgrid="false"
     id="namedview22"
     inkscape:window-height="480"
     inkscape:window-width="640"
     inkscape:pageshadow="2"
     inkscape:pageopacity="0"
     guidetolerance="10"
     gridtolerance="10"
     objecttolerance="10"
     borderopacity="1"
     bordercolor="#666666"
     pagecolor="#ffffff" />
  <path
     style="stroke-width:0.0543527"
     id="path2"
     fill="#912626"
     d="M 14.393173,11.445662 C 13.646576,11.830618 9.7790541,13.40369 8.9556784,13.828326 8.1323026,14.253017 7.6749017,14.248909 7.0244313,13.941311 6.3740153,13.633713 2.2582838,11.98912 1.5168794,11.638545 1.1463684,11.463393 0.951495,11.315486 0.951495,11.175797 V 9.7769585 c 0,0 5.3582,-1.1538966 6.2232173,-1.4608996 0.8649621,-0.307003 1.1650868,-0.3180851 1.9011905,-0.051356 0.7362132,0.2668369 5.1378612,1.0524272 5.8653852,1.3160206 l -3.27e-4,1.3790525 c 1.08e-4,0.138284 -0.167769,0.289975 -0.547788,0.485886" />
  <path
     style="stroke-width:0.0543527"
     id="path4"
     fill="#c6302b"
     d="M 14.392899,10.055094 C 13.646358,10.439889 9.7789447,12.013014 8.9555689,12.437596 8.1322479,12.862341 7.6748477,12.858178 7.0244313,12.55058 6.3739606,12.243199 2.258393,10.598336 1.5170433,10.247977 0.77569358,9.8974026 0.76017365,9.6561359 1.4884079,9.3740543 2.2166422,9.0918645 6.3096404,7.5033309 7.174767,7.1963278 8.0397292,6.889433 8.3397991,6.8782427 9.0759028,7.1450796 c 0.7361585,0.2667287 4.5805102,1.7804443 5.3079252,2.0439836 0.727687,0.2638636 0.755613,0.4811281 0.0091,0.8660308" />
  <path
     style="stroke-width:0.0543527"
     id="path6"
     fill="#912626"
     d="M 14.393173,9.1822517 C 13.646576,9.5672623 9.7790541,11.140281 8.9556784,11.565079 8.1323026,11.989607 7.6749017,11.985499 7.0244313,11.6779 6.3739606,11.370465 2.2582838,9.7257102 1.5168794,9.3751354 1.1463684,9.1999832 0.951495,9.052293 0.951495,8.9125496 V 7.513548 c 0,0 5.3582,-1.1538424 6.2232173,-1.4608454 0.8649621,-0.3070031 1.1650868,-0.3181393 1.9011905,-0.051356 0.736268,0.2667828 5.1379162,1.0522109 5.8653852,1.3158583 l -3.27e-4,1.3792159 c 1.08e-4,0.1382297 -0.167769,0.2899202 -0.547788,0.4858313" />
  <path
     style="stroke-width:0.0543527"
     id="path8"
     fill="#c6302b"
     d="M 14.392899,7.7916833 C 13.646358,8.1765858 9.7789447,9.7496044 8.9555689,10.174349 8.1322479,10.598931 7.6748477,10.594768 7.0244313,10.287171 6.3739606,9.9797889 2.258393,8.3349797 1.5170433,7.984567 0.77569358,7.6341004 0.76017365,7.3927795 1.4884079,7.1105897 2.2166422,6.8285622 6.309695,5.2399204 7.174767,4.9329715 8.0397292,4.6260225 8.3397991,4.6148864 9.0759028,4.8816691 c 0.7361585,0.2667288 4.5805102,1.7803362 5.3079252,2.0439837 0.727687,0.2638095 0.755613,0.481128 0.0091,0.8660305" />
  <path
     style="stroke-width:0.0543527"
     id="path10"
     fill="#912626"
     d="M 14.393173,6.8349412 C 13.646576,7.2198436 9.7790541,8.7929704 8.9556784,9.2177687 8.1323026,9.6423508 7.6749017,9.6381881 7.0244313,9.3305905 6.3739606,9.023155 2.2582838,7.3783457 1.5168794,7.027933 1.1463684,6.8526185 0.951495,6.7048744 0.951495,6.5652932 V 5.1662375 c 0,0 5.3582,-1.1537885 6.2232173,-1.4607374 0.8649621,-0.3070571 1.1650868,-0.3180852 1.9011905,-0.051356 0.736268,0.2667828 5.1379162,1.052211 5.8653852,1.3158584 l -3.27e-4,1.3791618 c 1.08e-4,0.1381216 -0.167769,0.2898122 -0.547788,0.4857773" />
  <path
     style="stroke-width:0.0543527"
     id="path12"
     fill="#c6302b"
     d="M 14.392899,5.4443728 C 13.646358,5.8292752 9.7789447,7.402402 8.9555689,7.8269841 8.1322479,8.2515661 7.6748477,8.2474036 7.0244313,7.9399681 6.3740153,7.6323704 2.258393,5.9876691 1.517098,5.6372025 0.77569358,5.2867899 0.7602283,5.0454148 1.4884079,4.7632791 2.2166422,4.4811975 6.309695,2.8927719 7.174767,2.585715 8.0397292,2.278712 8.3397991,2.2676838 9.0759028,2.5344667 9.8120613,2.8012495 13.656413,4.314857 14.383828,4.5785043 c 0.727687,0.2635934 0.755613,0.480966 0.0091,0.8658685" />
  <path
     style="stroke-width:0.0543527"
     id="path14"
     fill="#ffffff"
     d="M 9.655933,4.083537 8.4531384,4.2070626 8.1838898,4.8479901 7.749004,4.1327852 6.3601348,4.0093136 7.3964726,3.6396018 7.0855274,3.0720869 8.0557956,3.4474749 8.970488,3.1512296 8.723262,3.7380437 9.655933,4.083537 M 8.1120828,7.192922 5.8673225,6.2719131 9.0838813,5.783487 8.1120828,7.192922 M 4.9999006,4.4397881 c 0.9495026,0 1.7192144,0.295164 1.7192144,0.6591996 0,0.3641437 -0.7697118,0.6592536 -1.7192144,0.6592536 -0.9495025,0 -1.7192143,-0.295164 -1.7192143,-0.6592536 0,-0.3640356 0.7697118,-0.6591996 1.7192143,-0.6591996" />
  <path
     style="stroke-width:0.0543527"
     id="path16"
     fill="#621b1c"
     d="m 11.077427,4.2587433 1.903705,0.744181 -1.902065,0.743478 -0.0016,-1.487713" />
  <path
     style="stroke-width:0.0543527"
     id="path18"
     fill="#9a2928"
     d="m 8.9713076,5.082878 2.1061194,-0.8241347 0.0016,1.487659 -0.206513,0.0799 -1.9012456,-0.7434239" />
</svg>

<svg xmlns="http://www.w3.org/2000/svg" preserveAspectRatio="xMinYMin meet" width="16" viewBox="0 0 16 16" height="16"><path fill="#912626" d="M14.393 11.446c-.746.385-4.614 1.958-5.437 2.382-.824.425-1.281.42-1.932.113-.65-.307-4.766-1.952-5.507-2.302-.37-.176-.566-.324-.566-.463V9.777s5.359-1.154 6.224-1.46c.865-.308 1.165-.319 1.9-.052.737.267 5.139 1.052 5.866 1.316v1.379c0 .138-.168.29-.548.486" stroke-width=".054"/><path fill="#c6302b" d="M14.393 10.055c-.747.385-4.614 1.958-5.437 2.383-.824.424-1.281.42-1.932.113-.65-.308-4.766-1.953-5.507-2.303-.741-.35-.757-.592-.029-.874.729-.282 4.822-1.87 5.687-2.178.865-.307 1.165-.318 1.9-.05.737.266 4.581 1.78 5.309 2.043.728.264.755.481.009.866" stroke-width=".054"/><path fill="#912626" d="M14.393 9.182c-.746.385-4.614 1.958-5.437 2.383-.824.425-1.281.42-1.932.113-.65-.308-4.766-1.952-5.507-2.303C1.147 9.2.95 9.052.95 8.913v-1.4S6.31 6.36 7.175 6.054c.865-.307 1.165-.318 1.9-.052.737.267 5.139 1.053 5.866 1.316v1.38c0 .138-.168.29-.548.485" stroke-width=".054"/><path fill="#c6302b" d="M14.393 7.792c-.747.385-4.614 1.958-5.437 2.382-.824.425-1.281.42-1.932.113-.65-.307-4.766-1.952-5.507-2.302-.741-.35-.757-.592-.029-.874.729-.282 4.822-1.871 5.687-2.178.865-.307 1.165-.318 1.9-.051.737.266 4.581 1.78 5.309 2.044.728.263.755.48.009.866" stroke-width=".054"/><path fill="#912626" d="M14.393 6.835c-.746.385-4.614 1.958-5.437 2.383-.824.424-1.281.42-1.932.113-.65-.308-4.766-1.953-5.507-2.303-.37-.175-.566-.323-.566-.463V5.166s5.359-1.154 6.224-1.46c.865-.308 1.165-.319 1.9-.052.737.267 5.139 1.052 5.866 1.316v1.38c0 .137-.168.289-.548.485" stroke-width=".054"/><path fill="#c6302b" d="M14.393 5.444c-.747.385-4.614 1.958-5.437 2.383-.824.425-1.281.42-1.932.113-.65-.308-4.766-1.952-5.507-2.303-.741-.35-.757-.592-.029-.874.729-.282 4.822-1.87 5.687-2.177.865-.307 1.165-.318 1.9-.052.737.267 4.581 1.78 5.309 2.045.728.263.755.48.009.865" stroke-width=".054"/><path fill="#fff" d="M9.656 4.084l-1.203.123-.27.641-.434-.715-1.389-.124 1.036-.37-.31-.567.97.375.914-.296-.247.587.933.346M8.112 7.193l-2.245-.921 3.217-.489-.972 1.41M5 4.44c.95 0 1.72.295 1.72.659 0 .364-.77.66-1.72.66s-1.72-.296-1.72-.66c0-.364.77-.66 1.72-.66" stroke-width=".054"/><path fill="#621b1c" d="M11.077 4.259l1.904.744-1.902.743-.002-1.487" stroke-width=".054"/><path fill="#9a2928" d="M8.971 5.083l2.106-.824.002 1.487-.206.08-1.902-.743" stroke-width=".054"/></svg>
